flaticon/stationery/panel.svg

<svg xmlns="http://www.w3.org/2000/svg" width="32" height="32" viewBox="0 0 24 24">
    <path d="M 24 14.886719 L 22.421875 14.886719 L 22.421875 0 L 1.578125 0 L 1.578125 14.886719 L 0 14.886719 L 0 15.925781 L 8.710938 15.925781 L 7.144531 23.796875 L 8.171875 24 L 9.777344 15.925781 L 11.476562 15.925781 L 11.476562 21.867188 L 12.523438 21.867188 L 12.523438 15.925781 L 13.722656 15.925781 L 15.324219 24 L 16.351562 23.796875 L 14.785156 15.925781 L 24 15.925781 Z M 21.375 14.886719 L 2.625 14.886719 L 2.625 1.039062 L 21.375 1.039062 Z M 21.375 14.886719"/>
    <path d="M 5.527344 12.808594 L 10.875 12.808594 L 10.875 13.847656 L 5.527344 13.847656 Z M 5.527344 12.808594"/>
</svg>

<svg xmlns="http://www.w3.org/2000/svg" width="32" height="32" viewBox="0 0 24 24">
    <path d="M24 14.887h-1.578V0H1.578v14.887H0v1.039h8.71l-1.565 7.87L8.172 24l1.605-8.074h1.7v5.941h1.046v-5.941h1.2L15.324 24l1.028-.203-1.567-7.871H24zm-2.625 0H2.625V1.039h18.75zm0 0"/>
    <path d="M5.527 12.809h5.348v1.039H5.527zm0 0"/>
</svg>
